24x24/actions/irc-channel-active.svg

<svg xmlns="http://www.w3.org/2000/svg" viewBox="0 0 24 24"><path style="fill:currentColor;fill-opacity:1;stroke:none;color:#5d656b" d="M8 4v4H4v1h4v6H4v1h4v4h1v-4h3v-1H9V9h6v3h1V9h4V8h-4V4h-1v4H9V4H8z"/><path style="fill:currentColor;fill-opacity:1;stroke:none;color:#27ae60" d="M16.5 13a3.492 3.492 0 0 0-3.5 3.5c0 1.939 1.561 3.5 3.5 3.5s3.5-1.561 3.5-3.5-1.561-3.5-3.5-3.5z"/></svg>

<svg xmlns="http://www.w3.org/2000/svg" viewBox="0 0 24 24">
  <defs id="defs3051">
    <style type="text/css" id="current-color-scheme">
      .ColorScheme-Text {
        color:#5d656b;
      }
      .ColorScheme-PositiveText {
        color:#27ae60;
      }
      </style>
  </defs>
  <path 
     style="fill:currentColor;fill-opacity:1;stroke:none" 
     d="M 8 4 L 8 8 L 4 8 L 4 9 L 8 9 L 8 15 L 4 15 L 4 16 L 8 16 L 8 20 L 9 20 L 9 16 L 12 16 L 12 15 L 9 15 L 9 9 L 15 9 L 15 12 L 16 12 L 16 9 L 20 9 L 20 8 L 16 8 L 16 4 L 15 4 L 15 8 L 9 8 L 9 4 L 8 4 z "
     class="ColorScheme-Text"
     />
  <path
     style="fill:currentColor;fill-opacity:1;stroke:none" 
     class="ColorScheme-PositiveText"
     d="M 16.5 13 C 14.561 13 13 14.561 13 16.5 C 13 18.439 14.561 20 16.5 20 C 18.439 20 20 18.439 20 16.5 C 20 14.561 18.439 13 16.5 13 z "
      />
</svg>
